img/vk.svg

<svg width="13" height="8" viewBox="0 0 13 8" fill="none" xmlns="http://www.w3.org/2000/svg">
<path d="M12.8841 7.1355C12.8492 7.0724 12.633 6.56585 11.593 5.52472C10.5041 4.43452 10.6504 4.61154 11.9619 2.72647C12.7606 1.57842 13.08 0.877323 12.98 0.577604C12.8849 0.291906 12.2975 0.367274 12.2975 0.367274L10.3441 0.379543C10.3441 0.379543 10.1994 0.35851 10.0914 0.427744C9.98654 0.496101 9.9191 0.653848 9.9191 0.653848C9.9191 0.653848 9.60951 1.54249 9.19673 2.29792C8.32648 3.89204 7.97789 3.97617 7.83569 3.87714C7.50498 3.64666 7.58786 2.94994 7.58786 2.45567C7.58786 0.910625 7.80482 0.266491 7.16452 0.0999807C6.95163 0.0447692 6.79562 0.00796159 6.25202 0.00182698C5.55484 -0.00606037 4.96411 0.0044561 4.63015 0.180607C4.40751 0.298041 4.23605 0.560076 4.34088 0.574975C4.47007 0.593378 4.76259 0.659983 4.91779 0.887839C5.11849 1.18142 5.11118 1.84221 5.11118 1.84221C5.11118 1.84221 5.22657 3.66068 4.84222 3.88678C4.57814 4.0419 4.21655 3.72553 3.44056 2.27864C3.04322 1.53811 2.74257 0.7187 2.74257 0.7187C2.74257 0.7187 2.68488 0.566211 2.58168 0.484708C2.45655 0.385678 2.28104 0.354129 2.28104 0.354129L0.423525 0.366398C0.423525 0.366398 0.144817 0.375162 0.0424345 0.505741C-0.0485722 0.622299 0.0351215 0.862424 0.0351215 0.862424C0.0351215 0.862424 1.4896 4.53179 3.13585 6.38182C4.6464 8.0776 6.3609 7.9663 6.3609 7.9663H7.13771C7.13771 7.9663 7.37254 7.93825 7.49198 7.79891C7.60249 7.67096 7.59843 7.43083 7.59843 7.43083C7.59843 7.43083 7.58299 6.30645 8.06727 6.14081C8.54425 5.97781 9.15692 7.22752 9.80615 7.70864C10.2969 8.07234 10.6699 7.99259 10.6699 7.99259L12.4063 7.9663C12.4063 7.9663 13.3148 7.90583 12.8841 7.1355Z" fill="white"/>
</svg>

<svg width="13" height="8" fill="none" xmlns="http://www.w3.org/2000/svg"><path d="M12.88 7.14c-.03-.07-.25-.57-1.29-1.62-1.09-1.09-.94-.9.37-2.8.8-1.14 1.12-1.84 1.02-2.14-.1-.29-.68-.21-.68-.21l-1.96.01s-.14-.02-.25.05a.59.59 0 00-.17.22s-.31.9-.72 1.65c-.87 1.6-1.22 1.68-1.36 1.58-.34-.23-.25-.93-.25-1.42C7.59.9 7.8.26 7.16.1c-.2-.06-.36-.1-.9-.1-.7 0-1.3 0-1.63.18-.22.12-.4.38-.29.4.13.01.42.08.58.3.2.3.2.96.2.96s.1 1.82-.28 2.05c-.26.15-.62-.16-1.4-1.61-.4-.74-.7-1.56-.7-1.56S2.68.57 2.58.48c-.12-.1-.3-.13-.3-.13L.42.37S.14.37.04.5c-.09.11 0 .35 0 .35s1.45 3.67 3.1 5.52c1.5 1.7 3.22 1.59 3.22 1.59h.78s.23-.03.35-.17c.11-.13.1-.37.1-.37s0-1.12.48-1.29c.47-.16 1.09 1.09 1.74 1.57.49.36.86.28.86.28l1.74-.02s.9-.06.47-.83z" fill="#fff"/></svg>
